assets/icons/arrow-down.svg

<svg width="24" height="25" viewBox="0 0 24 25" fill="none" xmlns="http://www.w3.org/2000/svg">
<path d="M20.0257 6.47224C20.3413 6.11016 20.8997 6.02736 21.3187 6.29541C21.7376 6.56354 21.8683 7.08727 21.6357 7.50237L21.5843 7.58398L14.3604 17.82C13.7969 18.6184 12.9589 19.1376 12 19.1376C11.101 19.1376 10.308 18.6818 9.74817 17.9669L9.63962 17.82L2.41567 7.58398L2.36426 7.50237C2.13167 7.08727 2.26244 6.56354 2.68132 6.29541C3.1003 6.02736 3.6587 6.11016 3.97434 6.47224L4.03432 6.54841L11.2583 16.7844L11.3659 16.9232C11.6172 17.2149 11.855 17.2804 12 17.2804C12.1656 17.2804 12.4521 17.1947 12.7417 16.7844L19.9657 6.54841L20.0257 6.47224Z" fill="#111111"/>
</svg>

<svg xmlns="http://www.w3.org/2000/svg" width="24" height="25" fill="none" viewBox="0 0 24 25"><path fill="#111" d="M20.026 6.472a1.01 1.01 0 0 1 1.293-.177c.419.269.55.792.317 1.207l-.052.082L14.36 17.82c-.563.798-1.401 1.318-2.36 1.318-.899 0-1.692-.456-2.252-1.171l-.108-.147L2.416 7.584l-.052-.082a.903.903 0 0 1 .317-1.207 1.01 1.01 0 0 1 1.293.177l.06.076 7.224 10.236.108.14c.251.29.489.356.634.356.166 0 .452-.085.742-.496l7.224-10.236z"/></svg>
